X:341
T:Inver Lasses
R:Reel
B:The Athole Collection
M:C|
L:1/8
K:A
f|e2cA d2fd|e2cA dBB>a|e2cA d2fd|edcB c>AA:|
g|a2ec d2fd|a2ec fBBg|a2ec d2fd|edcB cAAg|a2ec d2fd|a2 ec fBBg|afec defa|
edcB cAA||

